X:2855
T:Charlie Hardie's Reel
M:4/4
L:1/8
C:James Scott Skinner
S:Brendan Mulvihill
R:reel
Z:Devin McCabe
K:E
BeGe BeGe | cfAf cfAf | egBg egBe | gbaf geec |
!BeGe BeGe | cfAf cfAf | egBg egBe | abc'd' e'eea |
!gbef gabg | fbBc defa | gbef gabe | abc'd' e'eea |
!gbef gabg | fbBc defa | gbag fedc | BAGF E3e ||


